X:355
T: Ballinakill
S: "First Collection of Traditional Irish Music" (M.Mulvihill)
Z: B.Black
L: 1/8
M: 4/4
R: reel
K: D
FEDF A2 FA|d2 fd Bd (3dcd|FEDF A2 FA|\
1 afef fd (3dcd :|2 afeg fddc||
d2 fd Adfd|ABdf eABc|d2 fd Adfd|ABde fd d2|
defg a3 b|afed Bcdg|fedB A2 FA|dcde fa a2||
